X:1
T:That Old, Old Story Is True
T:Edward Othello Excell
T:That Old, Old Story Is True 
T:Public Domain
T:Public Domain
T:Public Domain
T:Public Domain
C:Edward Othello Excell
Z:Public Domain
%%score ( 1 2 ) ( 3 4 )
L:1/8
M:6/8
K:G
V:1 treble 
V:2 treble 
V:3 bass 
V:4 bass 
V:1
 ([GB]/[Ac]/) | [Bd]>G[GA] [GB]>[Gc][GB] | [EA]>E[EA] ([Cc][DB])[EA] | %3
w: 1.~There’s a|won- der- ful sto- ry I’ve|long a- go, ’Tis * called|
w: 2.~They told|me of a Be- ing so|ly and pure, That * came|
w: 3.~He a-|rose and as- cend- ed to|en, we’re told, Tri- * umph-|
w: 4.~Oh, that|won- der- ful sto- ry I|to re- peat, Of * peace|
 [DG]>[DF][DG] ([DA]>[DG])[DA] | [DB]3- [DB]2 ([GB]/[Ac]/) | [Bd]>G[GA] [GB]>[Gc][GB] | %6
w: sweet sto- ry of old”; I|~ * hear it|so oft- en, wher- ev- er|
w: the earth ~ to dwell, To|~ * seek for|His lost ones, and make them|
w: o’er death ~ and hell; He’s|pre- * par- ing|a place in that ci- ty|
w: good- will ~ to men; There’s|no * sto- ry|to me that is half ~|
 ([EA]>E)[EA] ([Cc][DB])[EA] | ([DG]>[DF])[DG] [EA]>[DB][DA] | [DG]3- [DG]2 ([DB]/[DB]/) | %9
w: go, That same ~ * old|ry was told; And I’ve thought|it * was strange|
w: cure, From death and * the|er of hell; That ~ He|was * des- pised|
w: gold, Where loved ones * for-|er may dwell. Where our kin-|dred * we’ll meet,|
w: sweet, As~I hear it * a-|and a- gain. He in- vites|you * to come—|
 [EB]>[EA][EG] [^DF]>E[DF] | [FA]>[EG][^DF] E2 (E/E/) | [^CA]>[CA][CE] [CG]>[CF][CE] | %12
w: that so oft- en they’d tell|~ sto- ry as if it|I’ve found out the rea- son|
w: and with thorns He was crowned,|the cross was ex- tend- ed|~ oh, what sweet peace in|
w: and we’ll nev- er more part,|~ oh, while I tell it|is peace to my soul, it|
w: He will free- ly re- ceive,|this mes- sage He send- eth|a man- sion in glo- ry|
 D3- D2 ([GB]/[Ac]/) | [Bd]>G[GA] [GB]>[Gc][GB] | [EA]>E[EA] ([Cc][DB])[EA] | %15
w: they * loved it|well, That old, old sto- ry|true. That old, old * sto-|
w: my * heart since|found That old, old sto- ry|true. That old, old * sto-|
w: is * joy to|heart, That old, old sto- ry|true. That old, old * sto-|
w: for * all who|lieve,” That old, old sto- ry|true. That old, old * sto-|
 (GF)[DG] [DA]>[DB][DA] | [DG]3- [DG]2 ||"^Refrain" [GB] | [Fd]2 [FA] [FA]>[GB][Ac] | %19
w: is * true, That old, old|ry *|is|true; But I’ve found out|
w: is * true, That old, old|ry *|is|true; But ~ oh, what|
w: is * true, That old, old|ry *|is|true; It is peace to|
w: is * true, That old, old|ry *|is|true; “There’s a man- sion|
 [GB]3- [GB]2 [DB] | [^CA]2 [CE] [CG]>[CF][CE] | D3- D2 ([GB]/[Ac]/) | [Bd]>G[GA] [GB]>[Gc][GB] | %23
w: the * rea-|son they loved it so|well, * That old,|sto- ry is true. * *|
w: sweet * peace|in my heart since I’ve|found * That old,|sto- ry is true. * *|
w: my * soul,|it is joy to my|heart, * That old,|sto- ry is true. * *|
w: in * glo-|ry for all who be-|lieve,” * That old,|sto- ry is true. * *|
 [EA]>E[EA] ([Cc][DB])[EA] | [DG]2 [Gd] [DF]>[DE][DF] | [DG]3- [DG]2 |] %26
w: |||
w: |||
w: |||
w: |||
V:2
 x | x3/2 G/ x4 | x3/2 E/ x4 | x6 | x6 | x3/2 G/ x4 | x3/2 E/ x4 | x6 | x6 | x9/2 E/ x | %10
w: |heard|“The|||I|sto-|||That|
w: |love-|to|||se-|pow-|||On|
w: |Heav-|ant|||of|ev-|||And|
w: |love|and|||so|gain|||And|
 x3 E2 E/E/ | x6 | D3- D2 x | x3/2 G/ x4 | x3/2 E/ x4 | D2 x4 | x5 || x | x6 | x6 | x6 | D3- D2 x | %22
w: were new; But||so *|is|ry|sto-||||||old *|
w: to view; But||I’ve *|is|ry|sto-||||||old *|
w: to you, It||my *|is|ry|sto-||||||old *|
w: to you, “There’s||be- *|is|ry|sto-||||||old *|
 x3/2 G/ x4 | x3/2 E/ x4 | x6 | x5 |] %26
w: ||||
w: ||||
w: ||||
w: ||||
V:3
 ([G,D]/[G,D]/) | [G,D]>[G,B,][G,C] [G,D]>[G,E][G,D] | [C,C]>[C,C][C,C] (ED)[C,C] | %3
 [D,B,]>[D,A,][D,B,] ([D,C]>[D,B,])[D,F,] | [G,,G,]3- [G,,G,]2 ([G,D]/[G,D]/) | %5
 [G,D]>[G,B,][G,C] [G,D]>[G,E][G,D] | ([C,C]>[C,C])[C,C] ([C,E][C,D])[C,C] | %7
 ([D,B,]>[D,A,])[D,B,] [D,C]>[D,D][D,C] | [G,B,]3- [G,B,]2 (G,/G,/) | %9
 [E,G,]>[E,A,][E,B,] [B,,B,]>[B,,G,][B,,A,] | [B,,B,]>[B,,B,][B,,A,] [E,G,]2 ([E,G,]/[E,G,]/) | %11
 [A,,A,]>[A,,A,][A,,A,] [A,,A,]>[A,,A,][A,,G,] | (z3/2 F,/A, [D,F,C]2) [G,D]/[G,D]/ | %13
 [G,D]>[G,B,][G,C] [G,D]>[G,E][G,D] | [C,C]>[C,C][C,C] (ED)[C,C] | (B,A,)[D,B,] [D,C]>[D,D][D,C] | %16
 [G,B,]3- [G,B,]2 || [G,D] | [D,D]2 [D,D] [D,D]>[D,D][D,D] | G,,>B,,D, [G,D]2 [G,,G,] | %20
 [A,,E,]2 [A,,A,] [A,,A,]>[A,,A,][A,,G,] | (z3/2 F,/A, [D,F,C]2) ([G,D]/[G,D]/) | %22
 [G,D]>[G,B,][G,C] [G,D]>[G,E][G,D] | [C,C]>[C,C][C,C] (ED)[C,C] | %24
 [D,B,]2 [D,B,] [D,C]>[D,C][D,C] | [G,,G,B,]3- [G,,G,B,]2 |] %26
V:4
 x | x6 | x3 C,2 x | x6 | x6 | x6 | x6 | x6 | x5 G,/G,/ | x6 | x6 | x6 | [D,F,]3- x3 | x6 | %14
 x3 C,2 x | D,2 x4 | x5 || x | x6 | [G,D]3- x3 | x6 | [D,F,]3- x3 | x6 | x3 C,2 x | x6 | x5 |] %26

